src/pos-icons/battery-alert-bluetooth.svg

<svg height="24" viewBox="0 0 24 24" width="24" xmlns="http://www.w3.org/2000/svg"><path d="m5 2v2h-1.67a1.33 1.33 0 0 0 -1.33 1.33v15.34c0 .73.6 1.33 1.33 1.33h9.34c.73 0 1.33-.6 1.33-1.33v-15.34a1.33 1.33 0 0 0 -1.33-1.33h-1.67v-2zm14 6v3.79l-2.29-2.29-.71.71 2.79 2.79-2.79 2.79.71.71 2.29-2.29v3.79h.5l2.85-2.86-2.14-2.14 2.14-2.15-2.85-2.85zm-12 1h2v5h-2zm13 .91.94.94-.94.94zm0 4.3.94.93-.94.94zm-13 1.79h2v2h-2z"/></svg>

<?xml version="1.0" encoding="UTF-8"?><!DOCTYPE svg PUBLIC "-//W3C//DTD SVG 1.1//EN" "http://www.w3.org/Graphics/SVG/1.1/DTD/svg11.dtd"><svg xmlns="http://www.w3.org/2000/svg" xmlns:xlink="http://www.w3.org/1999/xlink" version="1.1" id="mdi-battery-alert-bluetooth" width="24" height="24" viewBox="0 0 24 24"><path d="M5,2V4H3.33A1.33,1.33 0 0,0 2,5.33V20.67C2,21.4 2.6,22 3.33,22H12.67C13.4,22 14,21.4 14,20.67V5.33A1.33,1.33 0 0,0 12.67,4H11V2H5M19,8V11.79L16.71,9.5L16,10.21L18.79,13L16,15.79L16.71,16.5L19,14.21V18H19.5L22.35,15.14L20.21,13L22.35,10.85L19.5,8H19M7,9H9V14H7V9M20,9.91L20.94,10.85L20,11.79V9.91M20,14.21L20.94,15.14L20,16.08V14.21M7,16H9V18H7V16Z" /></svg>
